static/assets/svg/human/humanClothes/tails/tail5.svg

<svg class="tails" width="86" height="380" viewBox="202.715 584.407 198.848 380.048" xmlns="http://www.w3.org/2000/svg"><path d="M260.412 758.125c4.562 0 18.619-9.936 23.831-12.543 12.703-6.351 27.976 7.023 38.256 1.882 8.288-4.144 17.299-8.04 25.713-15.052 1.955-1.629 30.674-26.396 25.086-31.984-4.746-4.745-6.803-15.582-12.543-21.323-2.466-2.466-16.412-2.255-18.187-2.508-19.703-2.815-21.859-19.168-26.967-34.493-1.019-3.055-3.166-11.886 0-15.051 10.549-10.55 30.893-14.506 43.272-20.696 1.019-.509-4.912 4.39-6.898 4.39-4.248 0-10.683 7.568-12.543 11.288-3.7 7.4 7.262-7.789 12.543-2.508 1.709 1.709-15.159 18.08-10.035 23.204.882.882 4.76-7.784 7.526-5.017.139.139 2.03 17.378 2.509 18.814 2.73 8.19 18.399 9.832 23.204 19.442 6.086 12.171 11.937 9.45 7.526 38.255-.158 1.03-4.638 10.238-5.645 11.916-6.434 10.723-14.444 18.854-20.695 31.357-.756 1.512-13.377 5.437-13.797 5.017-1.961-1.96 8.404 1.192 8.78 1.255 6.598 1.099 7.901-9.701 18.814-13.171 2.424-.771 16.967-1.253 14.424-1.253-12.882 0-50.346 28.527-62.087 23.83-9.463-3.785-23.123-16.932-31.984-16.932" stroke="#000" fill="#949494"/></svg>

<svg class="tails" width="86" height="380" viewBox="202.71499633789062 584.406982421875 198.848388671875 380.0480041503906" preserveAspectRatio="xMidYMid meet" xmlns="http://www.w3.org/2000/svg">
  <defs id="svgEditorDefs">
    <path id="svgEditorClosePathDefs" class="lines" fill="black" style="stroke-width: 0px; stroke: none;"/>
  </defs>
  <path d="M 260.412 758.125 C 264.974 758.125 279.031 748.189 284.243 745.582 C 296.946 739.231 312.219 752.605 322.499 747.464 C 330.787 743.32 339.798 739.424 348.212 732.412 C 350.167 730.783 378.886 706.016 373.298 700.428 C 368.552 695.683 366.495 684.846 360.755 679.105 C 358.289 676.639 344.343 676.85 342.568 676.597 C 322.865 673.782 320.709 657.429 315.601 642.104 C 314.582 639.049 312.435 630.218 315.601 627.053 C 326.15 616.503 346.494 612.547 358.873 606.357 C 359.892 605.848 353.961 610.747 351.975 610.747 C 347.727 610.747 341.292 618.315 339.432 622.035 C 335.732 629.435 346.694 614.246 351.975 619.527 C 353.684 621.236 336.816 637.607 341.94 642.731 C 342.822 643.613 346.7 634.947 349.466 637.714 C 349.605 637.853 351.496 655.092 351.975 656.528 C 354.705 664.718 370.374 666.36 375.179 675.97 C 381.265 688.141 387.116 685.42 382.705 714.225 C 382.547 715.255 378.067 724.463 377.06 726.141 C 370.626 736.864 362.616 744.995 356.365 757.498 C 355.609 759.01 342.988 762.935 342.568 762.515 C 340.607 760.555 350.972 763.707 351.348 763.77 C 357.946 764.869 359.249 754.069 370.162 750.599 C 372.586 749.828 387.129 749.346 384.586 749.346 C 371.704 749.346 334.24 777.873 322.499 773.176 C 313.036 769.391 299.376 756.244 290.515 756.244" style="stroke: rgb(0, 0, 0); fill: rgb(148, 148, 148);"/>
</svg>
